images/3233643.svg

<?xml version="1.0" encoding="UTF-8"?>
<svg xmlns="http://www.w3.org/2000/svg" xmlns:xlink="http://www.w3.org/1999/xlink" width="300pt" height="300pt" viewBox="0 0 300 300" version="1.1">
<defs>
<g>
<symbol overflow="visible" id="glyph0-0">
<path style="stroke:none;" d="M 0.453125 1.59375 L 0.453125 -6.34375 L 4.953125 -6.34375 L 4.953125 1.59375 Z M 0.953125 1.09375 L 4.453125 1.09375 L 4.453125 -5.84375 L 0.953125 -5.84375 Z M 0.953125 1.09375 "/>
</symbol>
<symbol overflow="visible" id="glyph0-1">
<path style="stroke:none;" d="M 3.546875 -5.953125 C 2.898438 -5.953125 2.382812 -5.710938 2 -5.234375 C 1.625 -4.753906 1.4375 -4.101562 1.4375 -3.28125 C 1.4375 -2.445312 1.625 -1.789062 2 -1.3125 C 2.382812 -0.832031 2.898438 -0.59375 3.546875 -0.59375 C 4.191406 -0.59375 4.703125 -0.832031 5.078125 -1.3125 C 5.453125 -1.789062 5.640625 -2.445312 5.640625 -3.28125 C 5.640625 -4.101562 5.453125 -4.753906 5.078125 -5.234375 C 4.703125 -5.710938 4.191406 -5.953125 3.546875 -5.953125 Z M 3.546875 -6.6875 C 4.460938 -6.6875 5.195312 -6.375 5.75 -5.75 C 6.300781 -5.132812 6.578125 -4.3125 6.578125 -3.28125 C 6.578125 -2.238281 6.300781 -1.410156 5.75 -0.796875 C 5.195312 -0.179688 4.460938 0.125 3.546875 0.125 C 2.617188 0.125 1.878906 -0.179688 1.328125 -0.796875 C 0.773438 -1.410156 0.5 -2.238281 0.5 -3.28125 C 0.5 -4.3125 0.773438 -5.132812 1.328125 -5.75 C 1.878906 -6.375 2.617188 -6.6875 3.546875 -6.6875 Z M 3.546875 -6.6875 "/>
</symbol>
<symbol overflow="visible" id="glyph0-2">
<path style="stroke:none;" d="M 0.890625 -6.5625 L 2.078125 -6.5625 L 4.984375 -1.078125 L 4.984375 -6.5625 L 5.84375 -6.5625 L 5.84375 0 L 4.65625 0 L 1.75 -5.484375 L 1.75 0 L 0.890625 0 Z M 0.890625 -6.5625 "/>
</symbol>
</g>
</defs>
<g id="surface30189">
<rect x="0" y="0" width="300" height="300" style="fill:rgb(100%,100%,100%);fill-opacity:1;stroke:none;"/>
<path style="fill:none;stroke-width:1.2;stroke-linecap:butt;stroke-linejoin:miter;stroke:rgb(0%,0%,0%);stroke-opacity:1;stroke-miterlimit:10;" d="M 35.25 171.863281 L 46.472656 154.25 "/>
<path style="fill:none;stroke-width:1.2;stroke-linecap:butt;stroke-linejoin:miter;stroke:rgb(0%,0%,0%);stroke-opacity:1;stroke-miterlimit:10;" d="M 40.515625 172.742188 L 49.492188 158.652344 "/>
<path style="fill:none;stroke-width:1.2;stroke-linecap:butt;stroke-linejoin:miter;stroke:rgb(0%,0%,0%);stroke-opacity:1;stroke-miterlimit:10;" d="M 44.894531 190.386719 L 35.25 171.863281 "/>
<path style="fill:none;stroke-width:1.2;stroke-linecap:butt;stroke-linejoin:miter;stroke:rgb(0%,0%,0%);stroke-opacity:1;stroke-miterlimit:10;" d="M 46.472656 154.25 L 67.335938 155.160156 "/>
<path style="fill:none;stroke-width:1.2;stroke-linecap:butt;stroke-linejoin:miter;stroke:rgb(0%,0%,0%);stroke-opacity:1;stroke-miterlimit:10;" d="M 67.335938 155.160156 L 76.976562 173.6875 "/>
<path style="fill:none;stroke-width:1.2;stroke-linecap:butt;stroke-linejoin:miter;stroke:rgb(0%,0%,0%);stroke-opacity:1;stroke-miterlimit:10;" d="M 63.941406 159.28125 L 71.65625 174.101562 "/>
<path style="fill:none;stroke-width:1.2;stroke-linecap:butt;stroke-linejoin:miter;stroke:rgb(0%,0%,0%);stroke-opacity:1;stroke-miterlimit:10;" d="M 76.976562 173.6875 L 65.757812 191.296875 "/>
<path style="fill:none;stroke-width:1.2;stroke-linecap:butt;stroke-linejoin:miter;stroke:rgb(0%,0%,0%);stroke-opacity:1;stroke-miterlimit:10;" d="M 76.976562 173.6875 L 97.839844 174.597656 "/>
<path style="fill:none;stroke-width:1.2;stroke-linecap:butt;stroke-linejoin:miter;stroke:rgb(0%,0%,0%);stroke-opacity:1;stroke-miterlimit:10;" d="M 65.757812 191.296875 L 44.894531 190.386719 "/>
<path style="fill:none;stroke-width:1.2;stroke-linecap:butt;stroke-linejoin:miter;stroke:rgb(0%,0%,0%);stroke-opacity:1;stroke-miterlimit:10;" d="M 63.882812 186.296875 L 47.195312 185.570312 "/>
<path style="fill:none;stroke-width:1.2;stroke-linecap:butt;stroke-linejoin:miter;stroke:rgb(0%,0%,0%);stroke-opacity:1;stroke-miterlimit:10;" d="M 97.839844 174.597656 L 102.664062 183.859375 "/>
<path style="fill:none;stroke-width:1.2;stroke-linecap:butt;stroke-linejoin:miter;stroke:rgb(100%,0%,0%);stroke-opacity:1;stroke-miterlimit:10;" d="M 102.664062 183.859375 L 107.484375 193.121094 "/>
<path style="fill:none;stroke-width:1.2;stroke-linecap:butt;stroke-linejoin:miter;stroke:rgb(100%,0%,0%);stroke-opacity:1;stroke-miterlimit:10;" d="M 107.484375 193.121094 L 117.914062 193.578125 "/>
<path style="fill:none;stroke-width:1.2;stroke-linecap:butt;stroke-linejoin:miter;stroke:rgb(0%,0%,0%);stroke-opacity:1;stroke-miterlimit:10;" d="M 117.914062 193.578125 L 128.347656 194.03125 "/>
<path style=" stroke:none;fill-rule:nonzero;fill:rgb(100%,100%,100%);fill-opacity:1;" d="M 103.484375 187.621094 L 111.484375 187.621094 L 111.484375 198.621094 L 103.484375 198.621094 Z M 103.484375 187.621094 "/>
<g style="fill:rgb(100%,0%,0%);fill-opacity:1;">
  <use xlink:href="#glyph0-1" x="103.484375" y="196.28418"/>
</g>
<path style="fill:none;stroke-width:1.2;stroke-linecap:butt;stroke-linejoin:miter;stroke:rgb(0%,0%,0%);stroke-opacity:1;stroke-miterlimit:10;" d="M 128.347656 194.03125 L 133.167969 203.292969 "/>
<path style="fill:none;stroke-width:1.2;stroke-linecap:butt;stroke-linejoin:miter;stroke:rgb(0%,0%,100%);stroke-opacity:1;stroke-miterlimit:10;" d="M 133.167969 203.292969 L 137.988281 212.554688 "/>
<path style="fill:none;stroke-width:1.2;stroke-linecap:butt;stroke-linejoin:miter;stroke:rgb(0%,0%,0%);stroke-opacity:1;stroke-miterlimit:10;" d="M 133.671875 193.617188 L 137.527344 201.023438 "/>
<path style="fill:none;stroke-width:1.2;stroke-linecap:butt;stroke-linejoin:miter;stroke:rgb(0%,0%,100%);stroke-opacity:1;stroke-miterlimit:10;" d="M 137.527344 201.023438 L 141.382812 208.433594 "/>
<path style="fill:none;stroke-width:1.2;stroke-linecap:butt;stroke-linejoin:miter;stroke:rgb(0%,0%,100%);stroke-opacity:1;stroke-miterlimit:10;" d="M 139.566406 176.417969 L 133.957031 185.226562 "/>
<path style="fill:none;stroke-width:1.2;stroke-linecap:butt;stroke-linejoin:miter;stroke:rgb(0%,0%,0%);stroke-opacity:1;stroke-miterlimit:10;" d="M 133.957031 185.226562 L 128.347656 194.03125 "/>
<path style="fill:none;stroke-width:1.2;stroke-linecap:butt;stroke-linejoin:miter;stroke:rgb(0%,0%,100%);stroke-opacity:1;stroke-miterlimit:10;" d="M 137.988281 212.554688 L 148.421875 213.011719 "/>
<path style="fill:none;stroke-width:1.2;stroke-linecap:butt;stroke-linejoin:miter;stroke:rgb(0%,0%,0%);stroke-opacity:1;stroke-miterlimit:10;" d="M 148.421875 213.011719 L 158.855469 213.46875 "/>
<path style=" stroke:none;fill-rule:nonzero;fill:rgb(100%,100%,100%);fill-opacity:1;" d="M 134.988281 207.054688 L 141.988281 207.054688 L 141.988281 218.054688 L 134.988281 218.054688 Z M 134.988281 207.054688 "/>
<g style="fill:rgb(0%,0%,100%);fill-opacity:1;">
  <use xlink:href="#glyph0-2" x="134.988281" y="215.717773"/>
</g>
<path style="fill:none;stroke-width:1.2;stroke-linecap:butt;stroke-linejoin:miter;stroke:rgb(0%,0%,0%);stroke-opacity:1;stroke-miterlimit:10;" d="M 158.855469 213.46875 L 170.074219 195.855469 "/>
<path style="fill:none;stroke-width:1.2;stroke-linecap:butt;stroke-linejoin:miter;stroke:rgb(0%,0%,0%);stroke-opacity:1;stroke-miterlimit:10;" d="M 155.832031 209.066406 L 164.808594 194.976562 "/>
<path style="fill:none;stroke-width:1.2;stroke-linecap:butt;stroke-linejoin:miter;stroke:rgb(0%,0%,0%);stroke-opacity:1;stroke-miterlimit:10;" d="M 170.074219 195.855469 L 160.433594 177.332031 "/>
<path style="fill:none;stroke-width:1.2;stroke-linecap:butt;stroke-linejoin:miter;stroke:rgb(0%,0%,100%);stroke-opacity:1;stroke-miterlimit:10;" d="M 190.9375 196.765625 L 180.507812 196.308594 "/>
<path style="fill:none;stroke-width:1.2;stroke-linecap:butt;stroke-linejoin:miter;stroke:rgb(0%,0%,0%);stroke-opacity:1;stroke-miterlimit:10;" d="M 180.507812 196.308594 L 170.074219 195.855469 "/>
<path style="fill:none;stroke-width:1.2;stroke-linecap:butt;stroke-linejoin:miter;stroke:rgb(0%,0%,0%);stroke-opacity:1;stroke-miterlimit:10;" d="M 160.433594 177.332031 L 150 176.875 "/>
<path style="fill:none;stroke-width:1.2;stroke-linecap:butt;stroke-linejoin:miter;stroke:rgb(0%,0%,100%);stroke-opacity:1;stroke-miterlimit:10;" d="M 150 176.875 L 139.566406 176.417969 "/>
<path style="fill:none;stroke-width:1.2;stroke-linecap:butt;stroke-linejoin:miter;stroke:rgb(0%,0%,0%);stroke-opacity:1;stroke-miterlimit:10;" d="M 158.132812 182.148438 L 149.785156 181.785156 "/>
<path style="fill:none;stroke-width:1.2;stroke-linecap:butt;stroke-linejoin:miter;stroke:rgb(0%,0%,100%);stroke-opacity:1;stroke-miterlimit:10;" d="M 149.785156 181.785156 L 141.441406 181.417969 "/>
<path style="fill:none;stroke-width:1.2;stroke-linecap:butt;stroke-linejoin:miter;stroke:rgb(0%,0%,0%);stroke-opacity:1;stroke-miterlimit:10;" d="M 160.433594 177.332031 L 166.042969 168.523438 "/>
<path style="fill:none;stroke-width:1.2;stroke-linecap:butt;stroke-linejoin:miter;stroke:rgb(0%,0%,100%);stroke-opacity:1;stroke-miterlimit:10;" d="M 166.042969 168.523438 L 171.652344 159.71875 "/>
<path style=" stroke:none;fill-rule:nonzero;fill:rgb(100%,100%,100%);fill-opacity:1;" d="M 136.566406 170.917969 L 143.566406 170.917969 L 143.566406 181.917969 L 136.566406 181.917969 Z M 136.566406 170.917969 "/>
<g style="fill:rgb(0%,0%,100%);fill-opacity:1;">
  <use xlink:href="#glyph0-2" x="136.566406" y="179.581055"/>
</g>
<path style="fill:none;stroke-width:1.2;stroke-linecap:butt;stroke-linejoin:miter;stroke:rgb(0%,0%,100%);stroke-opacity:1;stroke-miterlimit:10;" d="M 171.652344 159.71875 L 182.085938 160.171875 "/>
<path style="fill:none;stroke-width:1.2;stroke-linecap:butt;stroke-linejoin:miter;stroke:rgb(0%,0%,0%);stroke-opacity:1;stroke-miterlimit:10;" d="M 182.085938 160.171875 L 192.515625 160.628906 "/>
<path style="fill:none;stroke-width:1.2;stroke-linecap:butt;stroke-linejoin:miter;stroke:rgb(0%,0%,100%);stroke-opacity:1;stroke-miterlimit:10;" d="M 171.652344 159.71875 L 166.832031 150.457031 "/>
<path style="fill:none;stroke-width:1.2;stroke-linecap:butt;stroke-linejoin:miter;stroke:rgb(0%,0%,0%);stroke-opacity:1;stroke-miterlimit:10;" d="M 166.832031 150.457031 L 162.011719 141.195312 "/>
<path style=" stroke:none;fill-rule:nonzero;fill:rgb(100%,100%,100%);fill-opacity:1;" d="M 168.652344 154.21875 L 175.652344 154.21875 L 175.652344 165.21875 L 168.652344 165.21875 Z M 168.652344 154.21875 "/>
<g style="fill:rgb(0%,0%,100%);fill-opacity:1;">
  <use xlink:href="#glyph0-2" x="168.652344" y="162.881836"/>
</g>
<path style="fill:none;stroke-width:1.2;stroke-linecap:butt;stroke-linejoin:miter;stroke:rgb(0%,0%,0%);stroke-opacity:1;stroke-miterlimit:10;" d="M 194.589844 161.949219 L 200.199219 153.140625 "/>
<path style="fill:none;stroke-width:1.2;stroke-linecap:butt;stroke-linejoin:miter;stroke:rgb(100%,0%,0%);stroke-opacity:1;stroke-miterlimit:10;" d="M 200.199219 153.140625 L 205.808594 144.335938 "/>
<path style="fill:none;stroke-width:1.2;stroke-linecap:butt;stroke-linejoin:miter;stroke:rgb(0%,0%,0%);stroke-opacity:1;stroke-miterlimit:10;" d="M 190.445312 159.308594 L 196.054688 150.503906 "/>
<path style="fill:none;stroke-width:1.2;stroke-linecap:butt;stroke-linejoin:miter;stroke:rgb(100%,0%,0%);stroke-opacity:1;stroke-miterlimit:10;" d="M 196.054688 150.503906 L 201.664062 141.695312 "/>
<path style="fill:none;stroke-width:1.2;stroke-linecap:butt;stroke-linejoin:miter;stroke:rgb(0%,0%,0%);stroke-opacity:1;stroke-miterlimit:10;" d="M 192.515625 160.628906 L 202.160156 179.152344 "/>
<path style=" stroke:none;fill-rule:nonzero;fill:rgb(100%,100%,100%);fill-opacity:1;" d="M 199.738281 137.515625 L 207.738281 137.515625 L 207.738281 148.515625 L 199.738281 148.515625 Z M 199.738281 137.515625 "/>
<g style="fill:rgb(100%,0%,0%);fill-opacity:1;">
  <use xlink:href="#glyph0-1" x="199.738281" y="146.178711"/>
</g>
<path style="fill:none;stroke-width:1.2;stroke-linecap:butt;stroke-linejoin:miter;stroke:rgb(0%,0%,0%);stroke-opacity:1;stroke-miterlimit:10;" d="M 202.160156 179.152344 L 196.546875 187.960938 "/>
<path style="fill:none;stroke-width:1.2;stroke-linecap:butt;stroke-linejoin:miter;stroke:rgb(0%,0%,100%);stroke-opacity:1;stroke-miterlimit:10;" d="M 196.546875 187.960938 L 190.9375 196.765625 "/>
<path style="fill:none;stroke-width:1.2;stroke-linecap:butt;stroke-linejoin:miter;stroke:rgb(0%,0%,0%);stroke-opacity:1;stroke-miterlimit:10;" d="M 196.894531 178.273438 L 192.40625 185.320312 "/>
<path style="fill:none;stroke-width:1.2;stroke-linecap:butt;stroke-linejoin:miter;stroke:rgb(0%,0%,100%);stroke-opacity:1;stroke-miterlimit:10;" d="M 192.40625 185.320312 L 187.917969 192.363281 "/>
<path style="fill:none;stroke-width:1.2;stroke-linecap:butt;stroke-linejoin:miter;stroke:rgb(0%,0%,0%);stroke-opacity:1;stroke-miterlimit:10;" d="M 202.160156 179.152344 L 223.023438 180.0625 "/>
<path style=" stroke:none;fill-rule:nonzero;fill:rgb(100%,100%,100%);fill-opacity:1;" d="M 187.9375 191.265625 L 194.9375 191.265625 L 194.9375 202.265625 L 187.9375 202.265625 Z M 187.9375 191.265625 "/>
<g style="fill:rgb(0%,0%,100%);fill-opacity:1;">
  <use xlink:href="#glyph0-2" x="187.9375" y="199.928711"/>
</g>
<path style="fill:none;stroke-width:1.2;stroke-linecap:butt;stroke-linejoin:miter;stroke:rgb(0%,0%,0%);stroke-opacity:1;stroke-miterlimit:10;" d="M 223.023438 180.0625 L 232.664062 198.589844 "/>
<path style="fill:none;stroke-width:1.2;stroke-linecap:butt;stroke-linejoin:miter;stroke:rgb(0%,0%,0%);stroke-opacity:1;stroke-miterlimit:10;" d="M 228.34375 179.648438 L 236.058594 194.46875 "/>
<path style="fill:none;stroke-width:1.2;stroke-linecap:butt;stroke-linejoin:miter;stroke:rgb(0%,0%,0%);stroke-opacity:1;stroke-miterlimit:10;" d="M 234.242188 162.453125 L 223.023438 180.0625 "/>
<path style="fill:none;stroke-width:1.2;stroke-linecap:butt;stroke-linejoin:miter;stroke:rgb(0%,0%,0%);stroke-opacity:1;stroke-miterlimit:10;" d="M 232.664062 198.589844 L 253.527344 199.5 "/>
<path style="fill:none;stroke-width:1.2;stroke-linecap:butt;stroke-linejoin:miter;stroke:rgb(0%,0%,0%);stroke-opacity:1;stroke-miterlimit:10;" d="M 253.527344 199.5 L 264.75 181.886719 "/>
<path style="fill:none;stroke-width:1.2;stroke-linecap:butt;stroke-linejoin:miter;stroke:rgb(0%,0%,0%);stroke-opacity:1;stroke-miterlimit:10;" d="M 250.507812 195.097656 L 259.484375 181.007812 "/>
<path style="fill:none;stroke-width:1.2;stroke-linecap:butt;stroke-linejoin:miter;stroke:rgb(0%,0%,0%);stroke-opacity:1;stroke-miterlimit:10;" d="M 264.75 181.886719 L 255.105469 163.363281 "/>
<path style="fill:none;stroke-width:1.2;stroke-linecap:butt;stroke-linejoin:miter;stroke:rgb(0%,0%,0%);stroke-opacity:1;stroke-miterlimit:10;" d="M 255.105469 163.363281 L 234.242188 162.453125 "/>
<path style="fill:none;stroke-width:1.2;stroke-linecap:butt;stroke-linejoin:miter;stroke:rgb(0%,0%,0%);stroke-opacity:1;stroke-miterlimit:10;" d="M 252.804688 168.179688 L 236.117188 167.453125 "/>
<path style="fill:none;stroke-width:1.2;stroke-linecap:butt;stroke-linejoin:miter;stroke:rgb(0%,0%,0%);stroke-opacity:1;stroke-miterlimit:10;" d="M 162.011719 141.195312 L 173.230469 123.582031 "/>
<path style="fill:none;stroke-width:1.2;stroke-linecap:butt;stroke-linejoin:miter;stroke:rgb(0%,0%,0%);stroke-opacity:1;stroke-miterlimit:10;" d="M 173.230469 123.582031 L 163.589844 105.058594 "/>
<path style="fill:none;stroke-width:1.2;stroke-linecap:butt;stroke-linejoin:miter;stroke:rgb(0%,0%,0%);stroke-opacity:1;stroke-miterlimit:10;" d="M 163.589844 105.058594 L 158.765625 95.792969 "/>
<path style="fill:none;stroke-width:1.2;stroke-linecap:butt;stroke-linejoin:miter;stroke:rgb(0%,0%,100%);stroke-opacity:1;stroke-miterlimit:10;" d="M 158.765625 95.792969 L 153.945312 86.53125 "/>
<path style="fill:none;stroke-width:1.2;stroke-linecap:butt;stroke-linejoin:miter;stroke:rgb(0%,0%,0%);stroke-opacity:1;stroke-miterlimit:10;" d="M 166.984375 100.933594 L 163.125 93.527344 "/>
<path style="fill:none;stroke-width:1.2;stroke-linecap:butt;stroke-linejoin:miter;stroke:rgb(0%,0%,100%);stroke-opacity:1;stroke-miterlimit:10;" d="M 163.125 93.527344 L 159.269531 86.117188 "/>
<path style="fill:none;stroke-width:1.2;stroke-linecap:butt;stroke-linejoin:miter;stroke:rgb(0%,0%,0%);stroke-opacity:1;stroke-miterlimit:10;" d="M 158.265625 105.472656 L 154.410156 98.0625 "/>
<path style="fill:none;stroke-width:1.2;stroke-linecap:butt;stroke-linejoin:miter;stroke:rgb(0%,0%,100%);stroke-opacity:1;stroke-miterlimit:10;" d="M 154.410156 98.0625 L 150.550781 90.652344 "/>
<path style=" stroke:none;fill-rule:nonzero;fill:rgb(100%,100%,100%);fill-opacity:1;" d="M 146.945312 81.03125 L 153.945312 81.03125 L 153.945312 92.03125 L 146.945312 92.03125 Z M 146.945312 81.03125 "/>
<g style="fill:rgb(0%,0%,100%);fill-opacity:1;">
  <use xlink:href="#glyph0-2" x="146.945312" y="89.694336"/>
</g>
</g>
</svg>

<svg xmlns="http://www.w3.org/2000/svg" xmlns:xlink="http://www.w3.org/1999/xlink" width="300pt" height="300pt" viewBox="0 0 300 300"><defs><symbol overflow="visible"><path d="M.453 1.594v-7.938h4.5v7.938zm.5-.5h3.5v-6.938h-3.5zm0 0"/></symbol><symbol overflow="visible" id="a"><path d="M3.547-5.953c-.65 0-1.164.242-1.547.72-.375.48-.563 1.13-.563 1.952 0 .835.188 1.49.563 1.967.383.48.898.72 1.547.72.644 0 1.156-.24 1.53-.72.376-.476.564-1.132.564-1.968 0-.822-.187-1.474-.562-1.954-.375-.477-.887-.72-1.53-.72zm0-.734c.914 0 1.648.312 2.203.937.55.617.828 1.438.828 2.47 0 1.042-.277 1.87-.828 2.483-.555.617-1.29.922-2.203.922-.93 0-1.668-.305-2.22-.922C.774-1.41.5-2.237.5-3.28c0-1.033.273-1.853.828-2.47.55-.625 1.29-.938 2.22-.938zm0 0"/></symbol><symbol overflow="visible" id="b"><path d="M.89-6.563H2.08l2.906 5.485v-5.484h.86V0H4.656L1.75-5.484V0H.89zm0 0"/></symbol></defs><g><path fill="#fff" d="M0 0h300v300H0z"/><path d="M35.25 171.863l11.223-17.613M40.516 172.742l8.976-14.09M44.895 190.387l-9.645-18.524M46.473 154.25l20.863.91M67.336 155.16l9.64 18.528M63.94 159.28l7.716 14.822M76.977 173.688l-11.22 17.61M76.977 173.688l20.863.91M65.758 191.297l-20.863-.91M63.883 186.297l-16.688-.727M97.84 174.598l4.824 9.26" stroke-width="1.2" stroke="#000" stroke-miterlimit="10" fill="none"/><path d="M102.664 183.86l4.82 9.26M107.484 193.12l10.43.458" stroke-width="1.2" stroke="#f00" stroke-miterlimit="10" fill="none"/><path d="M117.914 193.578l10.434.453" stroke-width="1.2" stroke="#000" stroke-miterlimit="10" fill="none"/><path d="M103.484 187.62h8v11h-8zm0 0" fill="#fff"/><use xlink:href="#a" x="103.484" y="196.284" fill="#f00"/><path d="M128.348 194.03l4.82 9.263" stroke-width="1.2" stroke="#000" stroke-miterlimit="10" fill="none"/><path d="M133.168 203.293l4.82 9.262" stroke-width="1.2" stroke="#00f" stroke-miterlimit="10" fill="none"/><path d="M133.672 193.617l3.855 7.406" stroke-width="1.2" stroke="#000" stroke-miterlimit="10" fill="none"/><path d="M137.527 201.023l3.856 7.41M139.566 176.418l-5.61 8.81" stroke-width="1.2" stroke="#00f" stroke-miterlimit="10" fill="none"/><path d="M133.957 185.227l-5.61 8.804" stroke-width="1.2" stroke="#000" stroke-miterlimit="10" fill="none"/><path d="M137.988 212.555l10.434.457" stroke-width="1.2" stroke="#00f" stroke-miterlimit="10" fill="none"/><path d="M148.422 213.012l10.433.457" stroke-width="1.2" stroke="#000" stroke-miterlimit="10" fill="none"/><path d="M134.988 207.055h7v11h-7zm0 0" fill="#fff"/><use xlink:href="#b" x="134.988" y="215.718" fill="#00f"/><path d="M158.855 213.47l11.22-17.615M155.832 209.066l8.977-14.09M170.074 195.855l-9.64-18.523" stroke-width="1.2" stroke="#000" stroke-miterlimit="10" fill="none"/><path d="M190.938 196.766l-10.43-.457" stroke-width="1.2" stroke="#00f" stroke-miterlimit="10" fill="none"/><path d="M180.508 196.31l-10.434-.455M160.434 177.332L150 176.875" stroke-width="1.2" stroke="#000" stroke-miterlimit="10" fill="none"/><path d="M150 176.875l-10.434-.457" stroke-width="1.2" stroke="#00f" stroke-miterlimit="10" fill="none"/><path d="M158.133 182.148l-8.348-.363" stroke-width="1.2" stroke="#000" stroke-miterlimit="10" fill="none"/><path d="M149.785 181.785l-8.344-.367" stroke-width="1.2" stroke="#00f" stroke-miterlimit="10" fill="none"/><path d="M160.434 177.332l5.61-8.81" stroke-width="1.2" stroke="#000" stroke-miterlimit="10" fill="none"/><path d="M166.043 168.523l5.61-8.804" stroke-width="1.2" stroke="#00f" stroke-miterlimit="10" fill="none"/><path d="M136.566 170.918h7v11h-7zm0 0" fill="#fff"/><use xlink:href="#b" x="136.566" y="179.581" fill="#00f"/><path d="M171.652 159.72l10.434.452" stroke-width="1.2" stroke="#00f" stroke-miterlimit="10" fill="none"/><path d="M182.086 160.172l10.43.457" stroke-width="1.2" stroke="#000" stroke-miterlimit="10" fill="none"/><path d="M171.652 159.72l-4.82-9.263" stroke-width="1.2" stroke="#00f" stroke-miterlimit="10" fill="none"/><path d="M166.832 150.457l-4.82-9.262" stroke-width="1.2" stroke="#000" stroke-miterlimit="10" fill="none"/><path d="M168.652 154.22h7v11h-7zm0 0" fill="#fff"/><use xlink:href="#b" x="168.652" y="162.882" fill="#00f"/><path d="M194.59 161.95l5.61-8.81" stroke-width="1.2" stroke="#000" stroke-miterlimit="10" fill="none"/><path d="M200.2 153.14l5.61-8.804" stroke-width="1.2" stroke="#f00" stroke-miterlimit="10" fill="none"/><path d="M190.445 159.31l5.61-8.806" stroke-width="1.2" stroke="#000" stroke-miterlimit="10" fill="none"/><path d="M196.055 150.504l5.61-8.81" stroke-width="1.2" stroke="#f00" stroke-miterlimit="10" fill="none"/><path d="M192.516 160.63l9.644 18.522" stroke-width="1.2" stroke="#000" stroke-miterlimit="10" fill="none"/><path d="M199.738 137.516h8v11h-8zm0 0" fill="#fff"/><use xlink:href="#a" x="199.738" y="146.179" fill="#f00"/><path d="M202.16 179.152l-5.613 8.81" stroke-width="1.2" stroke="#000" stroke-miterlimit="10" fill="none"/><path d="M196.547 187.96l-5.61 8.806" stroke-width="1.2" stroke="#00f" stroke-miterlimit="10" fill="none"/><path d="M196.895 178.273l-4.49 7.047" stroke-width="1.2" stroke="#000" stroke-miterlimit="10" fill="none"/><path d="M192.406 185.32l-4.488 7.043" stroke-width="1.2" stroke="#00f" stroke-miterlimit="10" fill="none"/><path d="M202.16 179.152l20.863.91" stroke-width="1.2" stroke="#000" stroke-miterlimit="10" fill="none"/><path d="M187.938 191.266h7v11h-7zm0 0" fill="#fff"/><use xlink:href="#b" x="187.938" y="199.929" fill="#00f"/><path d="M223.023 180.063l9.64 18.527M228.344 179.648l7.715 14.82M234.242 162.453l-11.22 17.61M232.664 198.59l20.863.91M253.527 199.5l11.223-17.613M250.508 195.098l8.976-14.09M264.75 181.887l-9.645-18.524M255.105 163.363l-20.863-.91M252.805 168.18l-16.688-.727M162.012 141.195l11.218-17.613M173.23 123.582l-9.64-18.523M163.59 105.06l-4.824-9.267" stroke-width="1.2" stroke="#000" stroke-miterlimit="10" fill="none"/><path d="M158.766 95.793l-4.82-9.262" stroke-width="1.2" stroke="#00f" stroke-miterlimit="10" fill="none"/><path d="M166.984 100.934l-3.86-7.407" stroke-width="1.2" stroke="#000" stroke-miterlimit="10" fill="none"/><path d="M163.125 93.527l-3.855-7.41" stroke-width="1.2" stroke="#00f" stroke-miterlimit="10" fill="none"/><path d="M158.266 105.473l-3.856-7.41" stroke-width="1.2" stroke="#000" stroke-miterlimit="10" fill="none"/><path d="M154.41 98.063l-3.86-7.41" stroke-width="1.2" stroke="#00f" stroke-miterlimit="10" fill="none"/><path d="M146.945 81.03h7v11h-7zm0 0" fill="#fff"/><use xlink:href="#b" x="146.945" y="89.694" fill="#00f"/></g></svg>
